man/figures/logo.svg

<svg xmlns="http://www.w3.org/2000/svg" viewBox="-2 -2 104 119"><path fill="#6b635b" stroke="#d2604a" stroke-width="1.75" d="m50 0 50 29v57l-50 29L0 86V29z"/><path fill="none" stroke="#d2604a" stroke-width=".7" d="m50 4 46.5 27v53L50 111 3.5 84V31Z"/><g transform="translate(0 1.5)"><rect width="50" height="72" x="25" y="20" fill="none" stroke="#c7bfb5" rx="2"/><path stroke="#c7bfb5" d="M25 28h-3m3 8h-3m3 8h-3m3 8h-3m3 8h-3m3 8h-3m3 8h-3m3 8h-3m53-56h3m-3 8h3m-3 8h3m-3 8h3m-3 8h3m-3 8h3m-3 8h3m-3 8h3"/><circle cx="30" cy="26" r="1.4" fill="#d2604a"/><path fill="none" stroke="#fff" stroke-linecap="round" stroke-linejoin="round" stroke-width="2" d="M40 50v18m-7-13h14M33 68l7-11 7 11m13-18v18m-7-13h14M53 68l7-11 7 11"/><path fill="none" stroke="#d2604a" stroke-linecap="round" stroke-linejoin="round" stroke-width="2" d="M50 30v18m-7-13h14M43 48l7-11 7 11"/><path fill="#fff" d="M43.19 82h-1.38v-4.66q0-.53-.05-1.02-.04-.49-.2-.78-.17-.31-.48-.48-.32-.16-.91-.16-.58 0-1.16.29t-1.15.74q.02.17.03.39.02.22.02.44V82h-1.38v-4.66q0-.54-.05-1.03-.05-.48-.2-.78-.17-.31-.48-.47-.32-.16-.91-.16-.56 0-1.13.28t-1.13.71V82h-1.38v-8.18h1.38v.91q.64-.54 1.28-.84t1.37-.3q.83 0 1.41.35.59.35.87.98.84-.71 1.53-1.02.68-.31 1.47-.31 1.35 0 1.99.82t.64 2.28Zm11.12-4.09q0 2-1.02 3.16-1.03 1.16-2.75 1.16-1.74 0-2.76-1.16t-1.02-3.16 1.02-3.16 2.76-1.16q1.72 0 2.75 1.16 1.02 1.16 1.02 3.16m-1.42 0q0-1.59-.62-2.36t-1.73-.77q-1.12 0-1.74.77t-.62 2.36q0 1.54.62 2.34.63.79 1.74.79 1.1 0 1.72-.79.63-.78.63-2.34m10.16-2.59h-.08q-.3-.07-.59-.11-.29-.03-.69-.03-.63 0-1.23.28-.59.29-1.14.73V82h-1.38v-8.18h1.38v1.21q.82-.66 1.45-.94.62-.27 1.27-.27.36 0 .52.02.17.02.49.07Zm4.27-2.87h-1.55v-1.43h1.55ZM67.24 82h-1.38v-8.18h1.38Z"/></g></svg>

<svg xmlns="http://www.w3.org/2000/svg" viewBox="-2 -2 104 119"><path d="M50 0l50 29v57L50 115 0 86V29z" fill="#6b635b" stroke="#d2604a" stroke-width="1.75"/><path d="M50 4L96.5 31V84L50 111 3.5 84V31Z" fill="none" stroke="#d2604a" stroke-width="0.7"/><g transform="translate(0,1.5)"><rect x="25" y="20" width="50" height="72" rx="2" fill="none" stroke="#c7bfb5" stroke-width="1"/><path d="M25 28H22M25 36H22M25 44H22M25 52H22M25 60H22M25 68H22M25 76H22M25 84H22M75 28H78M75 36H78M75 44H78M75 52H78M75 60H78M75 68H78M75 76H78M75 84H78" stroke="#c7bfb5" stroke-width="1"/><circle cx="30" cy="26" r="1.4" fill="#d2604a"/><path d="M40 50V68M33 55H47M33 68 40 57 47 68M60 50V68M53 55H67M53 68 60 57 67 68" fill="none" stroke="#fff" stroke-width="2" stroke-linecap="round" stroke-linejoin="round"/><path d="M50 30V48M43 35H57M43 48 50 37 57 48" fill="none" stroke="#d2604a" stroke-width="2" stroke-linecap="round" stroke-linejoin="round"/><path d="M43.19 82H41.81V77.34Q41.81 76.81 41.76 76.32Q41.72 75.83 41.56 75.54Q41.39 75.23 41.08 75.06Q40.76 74.9 40.17 74.9Q39.59 74.9 39.01 75.19Q38.43 75.48 37.86 75.93Q37.88 76.1 37.89 76.32Q37.91 76.54 37.91 76.76V82H36.53V77.34Q36.53 76.8 36.48 76.31Q36.43 75.83 36.28 75.53Q36.11 75.22 35.8 75.06Q35.48 74.9 34.89 74.9Q34.33 74.9 33.76 75.18Q33.19 75.46 32.63 75.89V82H31.25V73.82H32.63V74.73Q33.27 74.19 33.91 73.89Q34.55 73.59 35.28 73.59Q36.11 73.59 36.69 73.94Q37.28 74.29 37.56 74.92Q38.4 74.21 39.09 73.9Q39.77 73.59 40.56 73.59Q41.91 73.59 42.55 74.41Q43.19 75.23 43.19 76.69Z M54.31 77.91Q54.31 79.91 53.29 81.07Q52.26 82.23 50.54 82.23Q48.8 82.23 47.78 81.07Q46.76 79.91 46.76 77.91Q46.76 75.91 47.78 74.75Q48.8 73.59 50.54 73.59Q52.26 73.59 53.29 74.75Q54.31 75.91 54.31 77.91ZM52.89 77.91Q52.89 76.32 52.27 75.55Q51.65 74.78 50.54 74.78Q49.42 74.78 48.8 75.55Q48.18 76.32 48.18 77.91Q48.18 79.45 48.8 80.25Q49.43 81.04 50.54 81.04Q51.64 81.04 52.26 80.25Q52.89 79.47 52.89 77.91Z M63.05 75.32H62.97Q62.67 75.25 62.38 75.21Q62.09 75.18 61.69 75.18Q61.06 75.18 60.46 75.46Q59.87 75.75 59.32 76.19V82H57.94V73.82H59.32V75.03Q60.14 74.37 60.77 74.09Q61.39 73.82 62.04 73.82Q62.4 73.82 62.56 73.84Q62.73 73.86 63.05 73.91Z M67.32 72.45H65.77V71.02H67.32ZM67.24 82H65.86V73.82H67.24Z" fill="#fff"/></g></svg>
